src/assets/images/panel-leftIcon.svg

<svg width="11" height="13" viewBox="0 0 11 13" fill="none" xmlns="http://www.w3.org/2000/svg">
<path d="M0.740693 11.4172L0.740693 12.7113C0.740693 12.8234 0.895381 12.8854 0.999846 12.8167L10.0561 6.9222C10.133 6.87233 10.1953 6.80848 10.2381 6.73551C10.281 6.66254 10.3032 6.58239 10.3032 6.50116C10.3032 6.41993 10.281 6.33977 10.2381 6.26681C10.1953 6.19384 10.133 6.12999 10.0561 6.08012L0.999844 0.185588C0.893371 0.11695 0.740692 0.178892 0.740692 0.291056L0.740692 1.58514C0.740692 1.66717 0.786898 1.74586 0.863236 1.79608L8.09538 6.50032L0.863237 11.2062C0.786898 11.2565 0.740693 11.3351 0.740693 11.4172Z" fill="black" fill-opacity="0.45"/>
</svg>

<svg width="11" height="13" fill="none" xmlns="http://www.w3.org/2000/svg"><path d="M.74 11.417v1.294c0 .112.155.174.26.106l9.056-5.895a.566.566 0 0 0 .182-.186.461.461 0 0 0 0-.47.566.566 0 0 0-.182-.186L1 .186C.893.117.74.179.74.29v1.294c0 .082.047.16.123.211L8.095 6.5.863 11.206a.257.257 0 0 0-.122.211Z" fill="#000" fill-opacity=".45"/></svg>
